X: 35727
T: Saint Ruth's Bush
R: reel
M: 4/4
K: Adorian
|:gf|eAAB c2BA|GEED EDEG|AGAB cBcd|eaag (3efg dg|
eAAB c2BA|GEED EDEG|AGAB cdeg|dBGB A2:|
|:Bd|eaag a3g|eaag bgag|eggf g2fg|eg~g2 edBd|
eaag abag|eaag bgag|edef gage|dBGB A2:|
"Variation, bars 2 & 6"
GEED EDB,G,||

